; generated by PrusaSlicer 2.0.0+ on 2019-06-03 at 21:30:26

; 

; external perimeters extrusion width = 0.45mm
; perimeters extrusion width = 0.45mm
; infill extrusion width = 0.45mm
; solid infill extrusion width = 0.45mm
; top infill extrusion width = 0.40mm
; first layer extrusion width = 0.42mm

; external perimeters extrusion width = 0.45mm
; perimeters extrusion width = 0.45mm
; infill extrusion width = 0.45mm
; solid infill extrusion width = 0.45mm
; top infill extrusion width = 0.40mm
; first layer extrusion width = 0.42mm

; external perimeters extrusion width = 0.45mm
; perimeters extrusion width = 0.45mm
; infill extrusion width = 0.45mm
; solid infill extrusion width = 0.45mm
; top infill extrusion width = 0.40mm
; first layer extrusion width = 0.42mm

M73 P0 R93
M73 Q0 S96
M201 X1000 Y1000 Z1000 E8000 ; sets maximum accelerations, mm/sec^2
M203 X200 Y200 Z12 E120 ; sets maximum feedrates, mm/sec
M204 P1250 R1250 T1250 ; sets acceleration (P, T) and retract acceleration (R), mm/sec^2
M205 X8.00 Y8.00 Z0.40 E1.50 ; sets the jerk limits, mm/sec
M205 S0 T0 ; sets the minimum extruding and travel feed rate, mm/sec
M107
M115 U3.7.1 ; tell printer latest fw version
G90 ; use absolute coordinates
M83 ; extruder relative mode
M104 S215 ; set extruder temp
M140 S60 ; set bed temp
M190 S60 ; wait for bed temp
M109 S215 ; wait for extruder temp
G28 W ; home all without mesh bed level
G80 ; mesh bed leveling
G21 ; set units to millimeters

; Send the filament type to the MMU2.0 unit.
; E stands for extruder number, F stands for filament type (0: default; 1:flex; 2: PVA)
M403 E0 F0
M403 E1 F0
M403 E2 F0
M403 E3 F0
M403 E4 F0


;go outside print area
G1 Y-3.0 F1000.0
G1 Z0.4 F1000.0
; select extruder
T2
; initial load
G1 X55.0 E29.0 F1073.0
M73 Q0 S95
M73 P0 R93
G1 X5.0 E29.0 F1800.0
G1 X55.0 E8.0 F2000.0
G1 Z0.3 F1000.0
G92 E0.0
G1 X240.0 E25.0 F2200.0
G1 Y-2.0 F1000.0
G1 X55.0 E25 F1400.0
G1 Z0.20 F1000.0
G1 X5.0 E4.0 F1000.0
G92 E0.0


M221 S95
G92 E0.0
G21 ; set units to millimeters
G90 ; use absolute coordinates
M83 ; use relative distances for extrusion
T2
M900 K30 ; Filament gcode
G1 Z0.200 F10800.000
;BEFORE_LAYER_CHANGE
G92 E0.0
;0.2


G1 E-0.80000 F2100.00000
G1 Z0.800 F10800.000
G1 Z0.200
;AFTER_LAYER_CHANGE
;0.2
M900 K0
G1 E-2.20000 F2100.00000
G1 Z0.800 F10800.000
G1 X233.000 Y125.000
G1 Z0.200
G1 E3.00000 F2100.00000
;-------------------------------------
; CP WIPE TOWER FIRST LAYER BRIM START
G1 X233.000 Y153.620 E1.6316 F2400
G1 X230.457 Y154.077  F7000
G1 Y124.543 E1.2347 F2100
G1 X169.543 E2.5466
G1 Y154.077 E1.2347
G1 X230.457 E2.5466
G1 X230.914 Y154.534  F7000
G1 Y124.086 E1.2730 F2100
G1 X169.086 E2.5849
G1 Y154.534 E1.2730
G1 X230.914 E2.5849
G1 X231.371 Y154.991  F7000
G1 Y123.629 E1.3112 F2100
G1 X168.629 E2.6231
G1 Y154.991 E1.3112
G1 X231.371 E2.6231
G1 X231.828 Y155.448  F7000
G1 Y123.172 E1.3494 F2100
G1 X168.172 E2.6613
G1 Y155.448 E1.3494
G1 X231.828 E2.6613
G1 X230.000 Y153.620  F7000
G1 X170.000
G1 X230.000
; CP WIPE TOWER FIRST LAYER BRIM END
;-----------------------------------
G1 X229.500 Y125.500  F7200
;--------------------
; CP EMPTY GRID START
; layer #1
G1 X230.000
G1 Y125.000
G1 Y153.620 E1.0877 F1450
G1 X170.000 E2.2804
G1 Y125.000 E1.0877
G1 X230.000 E2.2804
G1 X229.500
G1 Y125.500
G1 Y153.120 E1.0497
G1 X170.500 E2.2424
G1 Y125.500 E1.0497
G1 X229.500 E2.2424
M73 Q1 S94
M73 P1 R92
G1 Y153.120
G1 X229.000 Y152.618  E0.0269
G1 X171.000 E2.2044
G1 Y152.116 E0.0191
G1 X229.000 E2.2044
G1 Y151.613 E0.0191
G1 X171.000 E2.2044
G1 Y151.111 E0.0191
G1 X229.000 E2.2044
G1 Y150.609 E0.0191
G1 X171.000 E2.2044
G1 Y150.107 E0.0191
G1 X229.000 E2.2044
G1 Y149.604 E0.0191
G1 X171.000 E2.2044
G1 Y149.102 E0.0191
G1 X229.000 E2.2044
G1 Y148.600 E0.0191
G1 X171.000 E2.2044
G1 Y148.098 E0.0191
G1 X229.000 E2.2044
G1 Y147.596 E0.0191
G1 X171.000 E2.2044
G1 Y147.093 E0.0191
G1 X229.000 E2.2044
G1 Y146.591 E0.0191
G1 X171.000 E2.2044
G1 Y146.089 E0.0191
G1 X229.000 E2.2044
G1 Y145.587 E0.0191
G1 X171.000 E2.2044
G1 Y145.084 E0.0191
G1 X229.000 E2.2044
G1 Y144.582 E0.0191
G1 X171.000 E2.2044
G1 Y144.080 E0.0191
G1 X229.000 E2.2044
G1 Y143.578 E0.0191
G1 X171.000 E2.2044
G1 Y143.076 E0.0191
G1 X229.000 E2.2044
G1 Y142.573 E0.0191
G1 X171.000 E2.2044
G1 Y142.071 E0.0191
G1 X229.000 E2.2044
G1 Y141.569 E0.0191
G1 X171.000 E2.2044
G1 Y141.067 E0.0191
G1 X229.000 E2.2044
G1 Y140.564 E0.0191
G1 X171.000 E2.2044
M73 Q2 S93
M73 P2 R91
G1 Y140.062 E0.0191
G1 X229.000 E2.2044
G1 Y139.560 E0.0191
G1 X171.000 E2.2044
G1 Y139.058 E0.0191
G1 X229.000 E2.2044
G1 Y138.556 E0.0191
G1 X171.000 E2.2044
G1 Y138.053 E0.0191
G1 X229.000 E2.2044
G1 Y137.551 E0.0191
G1 X171.000 E2.2044
G1 Y137.049 E0.0191
G1 X229.000 E2.2044
G1 Y136.547 E0.0191
G1 X171.000 E2.2044
G1 Y136.044 E0.0191
G1 X229.000 E2.2044
G1 Y135.542 E0.0191
G1 X171.000 E2.2044
G1 Y135.040 E0.0191
G1 X229.000 E2.2044
G1 Y134.538 E0.0191
G1 X171.000 E2.2044
G1 Y134.036 E0.0191
G1 X229.000 E2.2044
G1 Y133.533 E0.0191
G1 X171.000 E2.2044
G1 Y133.031 E0.0191
G1 X229.000 E2.2044
G1 Y132.529 E0.0191
G1 X171.000 E2.2044
G1 Y132.027 E0.0191
G1 X229.000 E2.2044
G1 Y131.524 E0.0191
G1 X171.000 E2.2044
G1 Y131.022 E0.0191
G1 X229.000 E2.2044
G1 Y130.520 E0.0191
G1 X171.000 E2.2044
G1 Y130.018 E0.0191
G1 X229.000 E2.2044
G1 Y129.516 E0.0191
G1 X171.000 E2.2044
G1 Y129.013 E0.0191
G1 X229.000 E2.2044
G1 Y128.511 E0.0191
G1 X171.000 E2.2044
G1 Y128.009 E0.0191
G1 X229.000 E2.2044
M73 Q3 S92
M73 P3 R90
G1 Y127.507 E0.0191
G1 X171.000 E2.2044
G1 Y127.004 E0.0191
G1 X229.000 E2.2044
G1 Y126.502 E0.0191
G1 X171.000 E2.2044
G1 Y126.000 E0.0191
G1 X229.000 E2.2044
G1 X171.000
; CP EMPTY GRID END
;------------------







M900 K30 ; Filament gcode
G1 F8640
G1 X167.709 Y126.000 E-0.76000
G1 E-0.04000 F2100.00000
G1 Z0.800 F10800.000
G1 X142.448 Y86.393
G1 Z0.200
G1 E0.80000 F2100.00000
M204 S1000
G1 F1200
G1 X142.658 Y87.353 E0.03083
G1 X142.658 Y137.478 E1.57161
G1 X142.551 Y138.148 E0.02128
G1 X142.271 Y138.766 E0.02128
G1 X141.840 Y139.290 E0.02128
G1 X141.286 Y139.682 E0.02128
G1 X140.710 Y139.901 E0.01931
G1 X140.099 Y139.976 E0.01931
G1 X40.066 Y139.976 E3.13647
G1 X39.382 Y139.875 E0.02165
G1 X38.754 Y139.599 E0.02152
G1 X38.222 Y139.165 E0.02152
G1 X37.822 Y138.603 E0.02165
G1 X37.604 Y138.031 E0.01919
G1 X37.528 Y137.424 E0.01919
G1 X37.528 Y87.359 E1.56975
G1 X37.632 Y86.684 E0.02140
G1 X37.911 Y86.061 E0.02140
G1 X38.344 Y85.533 E0.02140
G1 X38.901 Y85.139 E0.02140
G1 X39.476 Y84.920 E0.01931
G1 X40.088 Y84.845 E0.01931
G1 X140.097 Y84.845 E3.13573
G1 X141.066 Y85.036 E0.03095
G1 X141.890 Y85.579 E0.03095
G1 X142.414 Y86.343 E0.02907
G1 F8640
G1 X142.658 Y87.353 E-0.23991
G1 X142.658 Y89.606 E-0.52009
G1 E-0.04000 F2100.00000
G1 Z0.800 F10800.000
G1 X139.506 Y87.997
G1 Z0.200
G1 E0.80000 F2100.00000
G1 F1200
G1 X139.506 Y136.823 E1.53090
G1 X40.680 Y136.823 E3.09861
G1 X40.680 Y87.997 E1.53090
G1 X139.446 Y87.997 E3.09673
G1 X139.883 Y87.620 F10800.000
G1 F1200
G1 X139.883 Y137.200 E1.55455
G1 X40.303 Y137.200 E3.12226
G1 X40.303 Y87.620 E1.55455
G1 X139.823 Y87.620 E3.12038
G1 X139.739 Y87.993 F10800.000
G1 F8640
G1 X139.827 Y90.912 E-0.76000
G1 E-0.04000 F2100.00000
G1 Z0.800 F10800.000
G1 X139.393 Y88.873
G1 Z0.200
G1 E0.80000 F2100.00000
G1 F1200
G1 X138.800 Y88.280 E0.02631
G1 X138.266 Y88.280 E0.01674
G1 X139.223 Y89.237 E0.04246
G1 X139.223 Y89.771 E0.01674
G1 X137.733 Y88.280 E0.06614
G1 X137.199 Y88.280 E0.01674
G1 X139.223 Y90.304 E0.08981
G1 X139.223 Y90.838 E0.01674
G1 X136.666 Y88.280 E0.11349
M73 Q4 S91
G1 X136.132 Y88.280 E0.01674
M73 P4 R89
G1 X139.223 Y91.372 E0.13716
G1 X139.223 Y91.905 E0.01674
G1 X135.598 Y88.280 E0.16084
G1 X135.065 Y88.280 E0.01674
G1 X139.223 Y92.439 E0.18451
G1 X139.223 Y92.972 E0.01674
G1 X134.531 Y88.280 E0.20819
G1 X133.998 Y88.280 E0.01674
G1 X139.223 Y93.506 E0.23187
G1 X139.223 Y94.040 E0.01674
G1 X133.464 Y88.280 E0.25554
G1 X132.930 Y88.280 E0.01674
G1 X139.223 Y94.573 E0.27922
G1 X139.223 Y95.107 E0.01674
G1 X132.397 Y88.280 E0.30289
G1 X131.863 Y88.280 E0.01674
G1 X139.223 Y95.640 E0.32657
G1 X139.223 Y96.174 E0.01674
G1 X131.330 Y88.280 E0.35024
G1 X130.796 Y88.280 E0.01674
G1 X139.223 Y96.708 E0.37392
G1 X139.223 Y97.241 E0.01674
G1 X130.262 Y88.280 E0.39759
G1 X129.729 Y88.280 E0.01674
G1 X139.223 Y97.775 E0.42127
G1 X139.223 Y98.308 E0.01674
G1 X129.195 Y88.280 E0.44495
G1 X128.662 Y88.280 E0.01674
G1 X139.223 Y98.842 E0.46862
G1 X139.223 Y99.376 E0.01674
G1 X128.128 Y88.280 E0.49230
G1 X127.594 Y88.280 E0.01674
G1 X139.223 Y99.909 E0.51597
G1 X139.223 Y100.443 E0.01674
G1 X127.061 Y88.280 E0.53965
G1 X126.527 Y88.280 E0.01674
G1 X139.223 Y100.976 E0.56332
G1 X139.223 Y101.510 E0.01674
G1 X125.994 Y88.280 E0.58700
G1 X125.460 Y88.280 E0.01674
G1 X139.223 Y102.044 E0.61067
G1 X139.223 Y102.577 E0.01674
G1 X124.926 Y88.280 E0.63435
G1 X124.393 Y88.280 E0.01674
G1 X139.223 Y103.111 E0.65803
G1 X139.223 Y103.644 E0.01674
G1 X123.859 Y88.280 E0.68170
G1 X123.326 Y88.280 E0.01674
G1 X139.223 Y104.178 E0.70538
G1 X139.223 Y104.712 E0.01674
G1 X122.792 Y88.280 E0.72905
G1 X122.258 Y88.280 E0.01674
G1 X139.223 Y105.245 E0.75273
G1 X139.223 Y105.779 E0.01674
G1 X121.725 Y88.280 E0.77640
G1 X121.191 Y88.280 E0.01674
G1 X139.223 Y106.312 E0.80008
G1 X139.223 Y106.846 E0.01674
G1 X120.658 Y88.280 E0.82375
G1 X120.124 Y88.280 E0.01674
G1 X139.223 Y107.380 E0.84743
G1 X139.223 Y107.913 E0.01674
G1 X119.590 Y88.280 E0.87111
G1 X119.057 Y88.280 E0.01674
G1 X139.223 Y108.447 E0.89478
G1 X139.223 Y108.980 E0.01674
G1 X118.523 Y88.280 E0.91846
G1 X117.989 Y88.280 E0.01674
G1 X139.223 Y109.514 E0.94213
G1 X139.223 Y110.048 E0.01674
G1 X117.456 Y88.280 E0.96581
G1 X116.922 Y88.280 E0.01674
G1 X139.223 Y110.581 E0.98948
G1 X139.223 Y111.115 E0.01674
G1 X116.389 Y88.280 E1.01316
G1 X115.855 Y88.280 E0.01674
G1 X139.223 Y111.648 E1.03683
G1 X139.223 Y112.182 E0.01674
G1 X115.321 Y88.280 E1.06051
G1 X114.788 Y88.280 E0.01674
G1 X139.223 Y112.716 E1.08419
G1 X139.223 Y113.249 E0.01674
G1 X114.254 Y88.280 E1.10786
G1 X113.721 Y88.280 E0.01674
G1 X139.223 Y113.783 E1.13154
G1 X139.223 Y114.316 E0.01674
G1 X113.187 Y88.280 E1.15521
G1 X112.653 Y88.280 E0.01674
G1 X139.223 Y114.850 E1.17889
G1 X139.223 Y115.384 E0.01674
G1 X112.120 Y88.280 E1.20256
G1 X111.586 Y88.280 E0.01674
G1 X139.223 Y115.917 E1.22624
G1 X139.223 Y116.451 E0.01674
G1 X111.053 Y88.280 E1.24991
G1 X110.519 Y88.280 E0.01674
G1 X139.223 Y116.984 E1.27359
G1 X139.223 Y117.518 E0.01674
G1 X109.985 Y88.280 E1.29726
G1 X109.452 Y88.280 E0.01674
G1 X139.223 Y118.052 E1.32094
M73 Q5 S90
M73 P5 R88
G1 X139.223 Y118.585 E0.01674
G1 X108.918 Y88.280 E1.34462
G1 X108.385 Y88.280 E0.01674
G1 X139.223 Y119.119 E1.36829
G1 X139.223 Y119.652 E0.01674
G1 X107.851 Y88.280 E1.39197
G1 X107.317 Y88.280 E0.01674
G1 X139.223 Y120.186 E1.41564
G1 X139.223 Y120.720 E0.01674
G1 X106.784 Y88.280 E1.43932
G1 X106.250 Y88.280 E0.01674
G1 X139.223 Y121.253 E1.46299
G1 X139.223 Y121.787 E0.01674
G1 X105.717 Y88.280 E1.48667
G1 X105.183 Y88.280 E0.01674
G1 X139.223 Y122.320 E1.51034
G1 X139.223 Y122.854 E0.01674
G1 X104.649 Y88.280 E1.53402
G1 X104.116 Y88.280 E0.01674
G1 X139.223 Y123.388 E1.55770
G1 X139.223 Y123.921 E0.01674
G1 X103.582 Y88.280 E1.58137
G1 X103.049 Y88.280 E0.01674
G1 X139.223 Y124.455 E1.60505
G1 X139.223 Y124.989 E0.01674
G1 X102.515 Y88.280 E1.62872
G1 X101.981 Y88.280 E0.01674
G1 X139.223 Y125.522 E1.65240
G1 X139.223 Y126.056 E0.01674
G1 X101.448 Y88.280 E1.67607
G1 X100.914 Y88.280 E0.01674
G1 X139.223 Y126.589 E1.69975
G1 X139.223 Y127.123 E0.01674
G1 X100.381 Y88.280 E1.72342
G1 X99.847 Y88.280 E0.01674
G1 X139.223 Y127.657 E1.74710
G1 X139.223 Y128.190 E0.01674
G1 X99.313 Y88.280 E1.77078
G1 X98.780 Y88.280 E0.01674
G1 X139.223 Y128.724 E1.79445
G1 X139.223 Y129.257 E0.01674
G1 X98.246 Y88.280 E1.81813
G1 X97.713 Y88.280 E0.01674
G1 X139.223 Y129.791 E1.84180
G1 X139.223 Y130.325 E0.01674
G1 X97.179 Y88.280 E1.86548
G1 X96.645 Y88.280 E0.01674
G1 X139.223 Y130.858 E1.88915
M73 Q6 S89
M73 P6 R87
G1 X139.223 Y131.392 E0.01674
G1 X96.112 Y88.280 E1.91283
G1 X95.578 Y88.280 E0.01674
G1 X139.223 Y131.925 E1.93650
G1 X139.223 Y132.459 E0.01674
G1 X95.045 Y88.280 E1.96018
G1 X94.511 Y88.280 E0.01674
G1 X139.223 Y132.993 E1.98386
G1 X139.223 Y133.526 E0.01674
G1 X93.977 Y88.280 E2.00753
G1 X93.444 Y88.280 E0.01674
G1 X139.223 Y134.060 E2.03121
G1 X139.223 Y134.593 E0.01674
G1 X92.910 Y88.280 E2.05488
G1 X92.377 Y88.280 E0.01674
G1 X139.223 Y135.127 E2.07856
G1 X139.223 Y135.661 E0.01674
G1 X91.843 Y88.280 E2.10223
G1 X91.309 Y88.280 E0.01674
G1 X139.223 Y136.194 E2.12591
G1 X139.223 Y136.540 E0.01086
G1 X139.036 Y136.540 E0.00588
G1 X90.776 Y88.280 E2.14127
G1 X90.242 Y88.280 E0.01674
G1 X138.502 Y136.540 E2.14127
G1 X137.969 Y136.540 E0.01674
G1 X89.709 Y88.280 E2.14127
G1 X89.175 Y88.280 E0.01674
G1 X137.435 Y136.540 E2.14127
G1 X136.902 Y136.540 E0.01674
G1 X88.641 Y88.280 E2.14127
G1 X88.108 Y88.280 E0.01674
G1 X136.368 Y136.540 E2.14127
G1 X135.834 Y136.540 E0.01674
G1 X87.574 Y88.280 E2.14127
G1 X87.041 Y88.280 E0.01674
G1 X135.301 Y136.540 E2.14127
M73 Q7 S88
M73 P7 R86
G1 X134.767 Y136.540 E0.01674
G1 X86.507 Y88.280 E2.14127
G1 X85.973 Y88.280 E0.01674
G1 X134.234 Y136.540 E2.14127
G1 X133.700 Y136.540 E0.01674
G1 X85.440 Y88.280 E2.14127
G1 X84.906 Y88.280 E0.01674
G1 X133.166 Y136.540 E2.14127
G1 X132.633 Y136.540 E0.01674
G1 X84.373 Y88.280 E2.14127
G1 X83.839 Y88.280 E0.01674
G1 X132.099 Y136.540 E2.14127
G1 X131.566 Y136.540 E0.01674
G1 X83.305 Y88.280 E2.14127
G1 X82.772 Y88.280 E0.01674
G1 X131.032 Y136.540 E2.14127
G1 X130.498 Y136.540 E0.01674
G1 X82.238 Y88.280 E2.14127
G1 X81.705 Y88.280 E0.01674
G1 X129.965 Y136.540 E2.14127
G1 X129.431 Y136.540 E0.01674
G1 X81.171 Y88.280 E2.14127
G1 X80.637 Y88.280 E0.01674
G1 X128.898 Y136.540 E2.14127
G1 X128.364 Y136.540 E0.01674
G1 X80.104 Y88.280 E2.14127
G1 X79.570 Y88.280 E0.01674
G1 X127.830 Y136.540 E2.14127
G1 X127.297 Y136.540 E0.01674
G1 X79.037 Y88.280 E2.14127
G1 X78.503 Y88.280 E0.01674
G1 X126.763 Y136.540 E2.14127
G1 X126.230 Y136.540 E0.01674
G1 X77.969 Y88.280 E2.14127
G1 X77.436 Y88.280 E0.01674
G1 X125.696 Y136.540 E2.14127
M73 Q8 S87
M73 P9 R85
G1 X125.162 Y136.540 E0.01674
G1 X76.902 Y88.280 E2.14127
G1 X76.368 Y88.280 E0.01674
G1 X124.629 Y136.540 E2.14127
G1 X124.095 Y136.540 E0.01674
G1 X75.835 Y88.280 E2.14127
G1 X75.301 Y88.280 E0.01674
G1 X123.562 Y136.540 E2.14127
G1 X123.028 Y136.540 E0.01674
G1 X74.768 Y88.280 E2.14127
G1 X74.234 Y88.280 E0.01674
G1 X122.494 Y136.540 E2.14127
G1 X121.961 Y136.540 E0.01674
G1 X73.700 Y88.280 E2.14127
G1 X73.167 Y88.280 E0.01674
G1 X121.427 Y136.540 E2.14127
G1 X120.894 Y136.540 E0.01674
G1 X72.633 Y88.280 E2.14127
G1 X72.100 Y88.280 E0.01674
G1 X120.360 Y136.540 E2.14127
G1 X119.826 Y136.540 E0.01674
G1 X71.566 Y88.280 E2.14127
G1 X71.032 Y88.280 E0.01674
G1 X119.293 Y136.540 E2.14127
G1 X118.759 Y136.540 E0.01674
G1 X70.499 Y88.280 E2.14127
G1 X69.965 Y88.280 E0.01674
G1 X118.226 Y136.540 E2.14127
G1 X117.692 Y136.540 E0.01674
G1 X69.432 Y88.280 E2.14127
G1 X68.898 Y88.280 E0.01674
G1 X117.158 Y136.540 E2.14127
G1 X116.625 Y136.540 E0.01674
G1 X68.364 Y88.280 E2.14127
G1 X67.831 Y88.280 E0.01674
G1 X116.091 Y136.540 E2.14127
M73 Q9 S86
M73 P10 R84
G1 X115.558 Y136.540 E0.01674
G1 X67.297 Y88.280 E2.14127
G1 X66.764 Y88.280 E0.01674
G1 X115.024 Y136.540 E2.14127
G1 X114.490 Y136.540 E0.01674
G1 X66.230 Y88.280 E2.14127
G1 X65.696 Y88.280 E0.01674
G1 X113.957 Y136.540 E2.14127
G1 X113.423 Y136.540 E0.01674
G1 X65.163 Y88.280 E2.14127
G1 X64.629 Y88.280 E0.01674
G1 X112.889 Y136.540 E2.14127
G1 X112.356 Y136.540 E0.01674
G1 X64.096 Y88.280 E2.14127
G1 X63.562 Y88.280 E0.01674
G1 X111.822 Y136.540 E2.14127
G1 X111.289 Y136.540 E0.01674
G1 X63.028 Y88.280 E2.14127
G1 X62.495 Y88.280 E0.01674
G1 X110.755 Y136.540 E2.14127
G1 X110.221 Y136.540 E0.01674
G1 X61.961 Y88.280 E2.14127
G1 X61.428 Y88.280 E0.01674
G1 X109.688 Y136.540 E2.14127
G1 X109.154 Y136.540 E0.01674
G1 X60.894 Y88.280 E2.14127
G1 X60.360 Y88.280 E0.01674
